X: 18259
T: Humours Of Lucy
R: jig
M: 6/8
K: Eminor
|:~E3 GEG|B2A G3|def dBG|~A3 GFD|
~E3 GEG|B2A G3|ded dBG|ABc AFD:|
K: Gmaj
|:GBd ~g3|gfd ~e3|GAB dBG|ABc AFD|GBd gbg|
gfd ~e3|1 efg aba|gfd edB:|2 efg abd'|baf g2B||

